fa/svgs/regular/life-ring.svg

<svg xmlns="http://www.w3.org/2000/svg" viewBox="0 0 512 512"><!--! Font Awesome Free 6.1.1 by @fontawesome - https://fontawesome.com License - https://fontawesome.com/license/free (Icons: CC BY 4.0, Fonts: SIL OFL 1.1, Code: MIT License) Copyright 2022 Fonticons, Inc.--><path d="M464.1 431c10.2 9.4 10.2 24.6 0 33.1-8.5 10.2-23.7 10.2-33.1 0l-11.7-10.9C374.9 489.9 318.1 512 256 512c-62.1 0-118.9-22.1-163.26-58.8l-11.77 10.9c-9.37 10.2-24.57 10.2-33.94 0-9.37-8.5-9.37-23.7 0-33.1l11.77-11.7C22.08 374.9 0 318.1 0 256c0-62.1 22.08-118.9 58.8-163.26L47.03 80.97c-9.37-9.37-9.37-24.57 0-33.94 9.37-9.37 24.57-9.37 33.94 0L92.74 58.8C137.1 22.08 193.9 0 256 0c62.1 0 118.9 22.08 163.3 58.8L431 47.03c9.4-9.37 24.6-9.37 33.1 0 10.2 9.37 10.2 24.57 0 33.94l-10.9 11.77C489.9 137.1 512 193.9 512 256c0 62.1-22.1 118.9-58.8 163.3l10.9 11.7zm-159.3-92.3c-14.3 8.5-31 13.3-48.8 13.3-17.8 0-34.5-4.8-48.8-13.3l-80.3 80.4C162.3 447.2 207.2 464 256 464s93.7-16.8 129.1-44.9l-80.3-80.4zM464 256c0-48.8-16.8-93.7-44.9-129.1l-80.4 80.3c8.5 14.3 13.3 31 13.3 48.8 0 17.8-4.8 34.5-13.3 48.8l80.4 80.3C447.2 349.7 464 304.8 464 256zM256 48c-48.8 0-93.7 16.8-129.1 44.93l80.3 80.37c14.3-8.5 31-13.3 48.8-13.3 17.8 0 34.5 4.8 48.8 13.3l80.3-80.37C349.7 64.8 304.8 48 256 48zm-82.7 256.8c-8.5-14.3-13.3-31-13.3-48.8 0-17.8 4.8-34.5 13.3-48.8l-80.37-80.3C64.8 162.3 48 207.2 48 256s16.8 93.7 44.93 129.1l80.37-80.3zM256 208c-26.5 0-48 21.5-48 48s21.5 48 48 48 48-21.5 48-48-21.5-48-48-48z"/></svg>

<svg xmlns="http://www.w3.org/2000/svg" viewBox="0 0 512 512"><!--! Font Awesome Free 6.2.1 by @fontawesome - https://fontawesome.com License - https://fontawesome.com/license/free (Icons: CC BY 4.0, Fonts: SIL OFL 1.1, Code: MIT License) Copyright 2022 Fonticons, Inc. --><path d="M464.1 431C474.3 440.4 474.3 455.6 464.1 464.1C455.6 474.3 440.4 474.3 431 464.1L419.3 453.2C374.9 489.9 318.1 512 256 512C193.9 512 137.1 489.9 92.74 453.2L80.97 464.1C71.6 474.3 56.4 474.3 47.03 464.1C37.66 455.6 37.66 440.4 47.03 431L58.8 419.3C22.08 374.9 0 318.1 0 256C0 193.9 22.08 137.1 58.8 92.74L47.03 80.97C37.66 71.6 37.66 56.4 47.03 47.03C56.4 37.66 71.6 37.66 80.97 47.03L92.74 58.8C137.1 22.08 193.9 0 256 0C318.1 0 374.9 22.08 419.3 58.8L431 47.03C440.4 37.66 455.6 37.66 464.1 47.03C474.3 56.4 474.3 71.6 464.1 80.97L453.2 92.74C489.9 137.1 512 193.9 512 256C512 318.1 489.9 374.9 453.2 419.3L464.1 431zM304.8 338.7C290.5 347.2 273.8 352 256 352C238.2 352 221.5 347.2 207.2 338.7L126.9 419.1C162.3 447.2 207.2 464 256 464C304.8 464 349.7 447.2 385.1 419.1L304.8 338.7zM464 256C464 207.2 447.2 162.3 419.1 126.9L338.7 207.2C347.2 221.5 352 238.2 352 256C352 273.8 347.2 290.5 338.7 304.8L419.1 385.1C447.2 349.7 464 304.8 464 256V256zM256 48C207.2 48 162.3 64.8 126.9 92.93L207.2 173.3C221.5 164.8 238.2 160 256 160C273.8 160 290.5 164.8 304.8 173.3L385.1 92.93C349.7 64.8 304.8 48 256 48V48zM173.3 304.8C164.8 290.5 160 273.8 160 256C160 238.2 164.8 221.5 173.3 207.2L92.93 126.9C64.8 162.3 48 207.2 48 256C48 304.8 64.8 349.7 92.93 385.1L173.3 304.8zM256 208C229.5 208 208 229.5 208 256C208 282.5 229.5 304 256 304C282.5 304 304 282.5 304 256C304 229.5 282.5 208 256 208z"/></svg>
